icon-themes/elementary_svg/vcl/res/warningbox.svg

<svg height="32" width="32" xmlns="http://www.w3.org/2000/svg" xmlns:xlink="http://www.w3.org/1999/xlink"><linearGradient id="a" gradientTransform="matrix(.6665434 0 -.00290144 .6778742 -3.356813 -10.21839)" gradientUnits="userSpaceOnUse" x1="29.126724" x2="29.291178" y1="19.787613" y2="57.567127"><stop offset="0" stop-color="#fff"/><stop offset=".56911701" stop-color="#fff" stop-opacity=".235294"/><stop offset=".93297637" stop-color="#fff" stop-opacity=".156863"/><stop offset="1" stop-color="#fff" stop-opacity=".392157"/></linearGradient><linearGradient id="b" gradientTransform="matrix(.64447106 0 0 .6279377 .532692 1.525971)" gradientUnits="userSpaceOnUse" x1="24" x2="24" y1="1.428759" y2="44.745136"><stop offset="0" stop-color="#ffe16b"/><stop offset="1" stop-color="#f9c440"/></linearGradient><linearGradient id="c"><stop offset="0"/><stop offset="1" stop-opacity="0"/></linearGradient><linearGradient id="d" gradientTransform="matrix(.08449704 0 0 .01235294 -6.539646 38.470822)" gradientUnits="userSpaceOnUse" x1="302.85715" x2="302.85715" y1="366.64789" y2="609.50507"><stop offset="0" stop-opacity="0"/><stop offset=".5"/><stop offset="1" stop-opacity="0"/></linearGradient><radialGradient id="e" cx="605.71429" cy="486.64789" gradientTransform="matrix(-.0289166 0 0 .01235294 21.026894 38.470848)" gradientUnits="userSpaceOnUse" r="117.14286" xlink:href="#c"/><radialGradient id="f" cx="605.71429" cy="486.64789" gradientTransform="matrix(.02891661 0 0 .01235294 26.973101 38.470848)" gradientUnits="userSpaceOnUse" r="117.14286" xlink:href="#c"/><g opacity=".4" transform="matrix(.6666592 0 0 1.3333333 0 -30.333332)"><path d="m3.6 43h40.799999v3h-40.799999z" fill="url(#d)"/><path d="m3.6 43.00013v2.999835c-1.4891338.005647-3.6-.672111-3.6-1.500111 0-.827998 1.6617608-1.499723 3.6-1.499724z" fill="url(#e)"/><path d="m44.4 43.00013v2.999835c1.489133.0056 3.6-.672111 3.6-1.500111 0-.827998-1.661761-1.499723-3.6-1.499724z" fill="url(#f)"/></g><path d="m30.293619 26.642856-12.586655-23.1428569c-.361777-.6428555-1.016401-.999998-1.745461-.999998-.729055 0-1.38704.4285671-1.754313 1.0714275l-12.4929253 23.1428574c-.2940649.571431-.2974269 1.357145.06466 1.928571.3620822.571431.9441073.857144 1.6731674.857144h25.0795699c.72906 0 1.386736-.357143 1.680806-.928573.366968-.571426.370025-1.285711.08115-1.928572z" fill="url(#b)"/><path d="m28.898533 25.883662-11.535987-21.1785935c-.491305-.9123519-.667525-1.2050695-1.414174-1.2050695-.642174 0-.978182.4263056-1.44225 1.2874908l-11.4079407 21.1615382c-.6624379 1.188097-.73341 1.497791-.4145589 2.020717.3188463.522931.7282373.494449 2.2408862.528561h22.4216234c1.408249.01704 1.725466-.08806 1.984576-.610982.323323-.522931.185798-.93781-.432175-2.003662z" fill="none" opacity=".6" stroke="url(#a)"/><path d="m30.293619 26.642855-12.586655-23.142857c-.361777-.6428556-1.0164-.9999981-1.74546-.9999981-.729056 0-1.387041.4285672-1.754314 1.0714276l-12.4929253 23.1428585c-.2940649.571429-.297427 1.357144.06466 1.92857.3620822.571431.9441073.857144 1.6731673.857144h25.07957c.72906 0 1.386736-.357142 1.680806-.928572.366968-.571427.370025-1.285713.08115-1.928573z" fill="none" opacity=".5" stroke="#ad5f00"/><path d="m16 10c-1.104569 0-2 .895431-2 2 0 2 .666667 4.666667 1.333333 10h1.333334c.666666-5.333333 1.333333-8 1.333333-10 0-1.104569-.895431-2-2-2zm0 14c-1.104569 0-2 .895431-2 2s.895431 2 2 2 2-.895431 2-2-.895431-2-2-2z" fill="#fff" opacity=".3"/><path d="m16 9.0000003c-1.104569 0-2 .895431-2 1.9999997 0 2 .666667 4.666667 1.333333 10h1.333334c.666666-5.333333 1.333333-8 1.333333-10 0-1.1045687-.895431-1.9999997-2-1.9999997zm0 13.9999997c-1.104569 0-2 .895431-2 2s.895431 2 2 2 2-.895431 2-2-.895431-2-2-2z" fill="#7a0000"/></svg>

<?xml version="1.0" encoding="UTF-8" standalone="no"?>
<svg
   xmlns:dc="http://purl.org/dc/elements/1.1/"
   xmlns:cc="http://creativecommons.org/ns#"
   xmlns:rdf="http://www.w3.org/1999/02/22-rdf-syntax-ns#"
   xmlns:svg="http://www.w3.org/2000/svg"
   xmlns="http://www.w3.org/2000/svg"
   xmlns:xlink="http://www.w3.org/1999/xlink"
   xmlns:sodipodi="http://sodipodi.sourceforge.net/DTD/sodipodi-0.dtd"
   xmlns:inkscape="http://www.inkscape.org/namespaces/inkscape"
   id="svg4057"
   height="32"
   width="32"
   version="1.1"
   sodipodi:docname="warningbox.svg"
   inkscape:version="0.92.3 (unknown)"
   inkscape:export-filename="/home/rizmut/Dokumen/Rizmut/Github/libreoffice-style-elementary/images_elementary/vcl/res/warningbox.png"
   inkscape:export-xdpi="96"
   inkscape:export-ydpi="96">
  <sodipodi:namedview
     pagecolor="#ffffff"
     bordercolor="#666666"
     borderopacity="1"
     objecttolerance="10"
     gridtolerance="10"
     guidetolerance="10"
     inkscape:pageopacity="0"
     inkscape:pageshadow="2"
     inkscape:window-width="1366"
     inkscape:window-height="706"
     id="namedview34"
     showgrid="false"
     inkscape:zoom="7.375"
     inkscape:cx="-1.4237288"
     inkscape:cy="16"
     inkscape:window-x="0"
     inkscape:window-y="0"
     inkscape:window-maximized="1"
     inkscape:current-layer="svg4057" />
  <defs
     id="defs4059">
    <linearGradient
       id="linearGradient3117">
      <stop
         offset="0"
         style="stop-color:#ffffff;stop-opacity:1"
         id="stop3119" />
      <stop
         offset="0.56911701"
         style="stop-color:#ffffff;stop-opacity:0.23529412"
         id="stop3121" />
      <stop
         offset="0.93297637"
         style="stop-color:#ffffff;stop-opacity:0.15686275"
         id="stop3123" />
      <stop
         offset="1"
         style="stop-color:#ffffff;stop-opacity:0.39215687"
         id="stop3125" />
    </linearGradient>
    <linearGradient
       gradientTransform="matrix(0.6665434,0,-0.00290144,0.6778742,-3.3568127,-10.21839)"
       gradientUnits="userSpaceOnUse"
       xlink:href="#linearGradient3117"
       id="linearGradient3039"
       y2="57.567127"
       x2="29.291178"
       y1="19.787613"
       x1="29.126724" />
    <linearGradient
       gradientTransform="matrix(0.64447106,0,0,0.6279377,0.53269162,1.5259712)"
       gradientUnits="userSpaceOnUse"
       xlink:href="#linearGradient4171"
       id="linearGradient3042"
       y2="44.745136"
       x2="24"
       y1="1.4287592"
       x1="24" />
    <linearGradient
       id="linearGradient5048-4">
      <stop
         offset="0"
         style="stop-color:#000000;stop-opacity:0"
         id="stop5050-6" />
      <stop
         offset="0.5"
         style="stop-color:#000000;stop-opacity:1"
         id="stop5056-9" />
      <stop
         offset="1"
         style="stop-color:#000000;stop-opacity:0"
         id="stop5052-3" />
    </linearGradient>
    <linearGradient
       id="linearGradient5060-3">
      <stop
         offset="0"
         style="stop-color:#000000;stop-opacity:1"
         id="stop5062-9" />
      <stop
         offset="1"
         style="stop-color:#000000;stop-opacity:0"
         id="stop5064-4" />
    </linearGradient>
    <linearGradient
       gradientTransform="matrix(0.08449704,0,0,0.01235294,-6.5396456,38.470822)"
       gradientUnits="userSpaceOnUse"
       xlink:href="#linearGradient5048-4"
       id="linearGradient3196"
       y2="609.50507"
       x2="302.85715"
       y1="366.64789"
       x1="302.85715" />
    <radialGradient
       gradientTransform="matrix(-0.0289166,0,0,0.01235294,21.026894,38.470848)"
       gradientUnits="userSpaceOnUse"
       xlink:href="#linearGradient5060-3"
       id="radialGradient3198"
       fy="486.64789"
       fx="605.71429"
       r="117.14286"
       cy="486.64789"
       cx="605.71429" />
    <radialGradient
       gradientTransform="matrix(0.02891661,0,0,0.01235294,26.973101,38.470848)"
       gradientUnits="userSpaceOnUse"
       xlink:href="#linearGradient5060-3"
       id="radialGradient3200"
       fy="486.64789"
       fx="605.71429"
       r="117.14286"
       cy="486.64789"
       cx="605.71429" />
    <linearGradient
       id="linearGradient4171">
      <stop
         style="stop-color:#ffe16b;stop-opacity:1"
         offset="0"
         id="stop4173" />
      <stop
         style="stop-color:#f9c440;stop-opacity:1"
         offset="1"
         id="stop4175" />
    </linearGradient>
  </defs>
  <metadata
     id="metadata4062">
    <rdf:RDF>
      <cc:Work
         rdf:about="">
        <dc:format>image/svg+xml</dc:format>
        <dc:type
           rdf:resource="http://purl.org/dc/dcmitype/StillImage" />
        <dc:title></dc:title>
      </cc:Work>
    </rdf:RDF>
  </metadata>
  <g
     style="opacity:0.4"
     id="g3257"
     transform="matrix(0.6666592,0,0,1.3333333,0,-30.333332)">
    <rect
       style="fill:url(#linearGradient3196);fill-opacity:1;fill-rule:nonzero;stroke:none;stroke-width:1;marker:none;visibility:visible;display:inline;overflow:visible"
       id="rect2879"
       y="43"
       x="3.5999999"
       height="2.9999998"
       width="40.799999" />
    <path
       style="fill:url(#radialGradient3198);fill-opacity:1;fill-rule:nonzero;stroke:none;stroke-width:1;marker:none;visibility:visible;display:inline;overflow:visible"
       id="path2881"
       d="m 3.6,43.00013 c 0,0 0,2.999835 0,2.999835 C 2.1108662,46.005612 0,45.327854 0,44.499854 0,43.671856 1.6617608,43.000131 3.6,43.00013 z" />
    <path
       style="fill:url(#radialGradient3200);fill-opacity:1;fill-rule:nonzero;stroke:none;stroke-width:1;marker:none;visibility:visible;display:inline;overflow:visible"
       id="path2883"
       d="m 44.4,43.00013 c 0,0 0,2.999835 0,2.999835 1.489133,0.0056 3.6,-0.672111 3.6,-1.500111 0,-0.827998 -1.661761,-1.499723 -3.6,-1.499724 z" />
  </g>
  <path
     style="fill:url(#linearGradient3042);fill-opacity:1;fill-rule:nonzero;stroke:none"
     id="path11155"
     d="M 30.293619,26.642856 17.706964,3.4999991 c -0.361777,-0.6428555 -1.016401,-0.999998 -1.745461,-0.999998 -0.729055,0 -1.38704,0.4285671 -1.754313,1.0714275 L 1.7142647,26.714286 c -0.2940649,0.571431 -0.2974269,1.357145 0.06466,1.928571 0.3620822,0.571431 0.9441073,0.857144 1.6731674,0.857144 l 25.0795699,0 c 0.72906,0 1.386736,-0.357143 1.680806,-0.928573 0.366968,-0.571426 0.370025,-1.285711 0.08115,-1.928572 z" />
  <path
     style="opacity:0.6;fill:none;stroke:url(#linearGradient3039);stroke-width:0.99999994;stroke-miterlimit:4;stroke-opacity:1;stroke-dasharray:none"
     id="path11159"
     d="M 28.898533,25.883662 17.362546,4.7050685 C 16.871241,3.7927166 16.695021,3.499999 15.948372,3.499999 c -0.642174,0 -0.978182,0.4263056 -1.44225,1.2874908 L 3.0981813,25.949028 c -0.6624379,1.188097 -0.73341,1.497791 -0.4145589,2.020717 0.3188463,0.522931 0.7282373,0.494449 2.2408862,0.528561 l 22.4216234,0 c 1.408249,0.01704 1.725466,-0.08806 1.984576,-0.610982 0.323323,-0.522931 0.185798,-0.93781 -0.432175,-2.003662 z" />
  <path
     style="opacity:0.5;color:#000000;fill:none;stroke:#ad5f00;stroke-width:0.99999982;stroke-linecap:butt;stroke-linejoin:miter;stroke-miterlimit:4;stroke-opacity:1;stroke-dasharray:none;stroke-dashoffset:0;marker:none;visibility:visible;display:inline;overflow:visible;enable-background:accumulate;clip-rule:nonzero;isolation:auto;mix-blend-mode:normal;color-interpolation:sRGB;color-interpolation-filters:linearRGB;solid-color:#000000;solid-opacity:1;fill-opacity:1;fill-rule:nonzero;filter-blend-mode:normal;filter-gaussianBlur-deviation:0;color-rendering:auto;image-rendering:auto;shape-rendering:auto;text-rendering:auto"
     id="path11155-59"
     d="M 30.293619,26.642855 17.706964,3.499998 c -0.361777,-0.6428556 -1.0164,-0.9999981 -1.74546,-0.9999981 -0.729056,0 -1.387041,0.4285672 -1.754314,1.0714276 L 1.7142647,26.714286 c -0.2940649,0.571429 -0.297427,1.357144 0.06466,1.92857 C 2.1410069,29.214287 2.723032,29.5 3.452092,29.5 l 25.07957,0 c 0.72906,0 1.386736,-0.357142 1.680806,-0.928572 0.366968,-0.571427 0.370025,-1.285713 0.08115,-1.928573 z" />
  <path
     style="opacity:0.3;fill:#ffffff;fill-opacity:1;stroke:none;stroke-width:1;stroke-linejoin:round;stroke-miterlimit:4;stroke-dasharray:none;stroke-opacity:0.49803922"
     d="m 16,10 c -1.104569,0 -2,0.895431 -2,2 0,2 0.666667,4.666667 1.333333,10 l 1.333334,0 C 17.333333,16.666667 18,14 18,12 18,10.895431 17.104569,10 16,10 Z m 0,14 c -1.104569,0 -2,0.895431 -2,2 0,1.104569 0.895431,2 2,2 1.104569,0 2,-0.895431 2,-2 0,-1.104569 -0.895431,-2 -2,-2 z"
     id="path4238" />
  <path
     id="path4159-3"
     d="m 16,9.0000003 c -1.104569,0 -2,0.895431 -2,1.9999997 0,2 0.666667,4.666667 1.333333,10 l 1.333334,0 C 17.333333,15.666667 18,13 18,11 18,9.8954313 17.104569,9.0000003 16,9.0000003 Z M 16,23 c -1.104569,0 -2,0.895431 -2,2 0,1.104569 0.895431,2 2,2 1.104569,0 2,-0.895431 2,-2 0,-1.104569 -0.895431,-2 -2,-2 z"
     style="opacity:1;fill:#7a0000;fill-opacity:1;stroke:none;stroke-width:1;stroke-linejoin:round;stroke-miterlimit:4;stroke-dasharray:none;stroke-opacity:0.49803922;color:#000000;clip-rule:nonzero;display:inline;overflow:visible;visibility:visible;isolation:auto;mix-blend-mode:normal;color-interpolation:sRGB;color-interpolation-filters:linearRGB;solid-color:#000000;solid-opacity:1;fill-rule:nonzero;stroke-linecap:butt;stroke-dashoffset:0;filter-blend-mode:normal;filter-gaussianBlur-deviation:0;color-rendering:auto;image-rendering:auto;shape-rendering:auto;text-rendering:auto;enable-background:accumulate" />
</svg>
